!!!!SEGMENT: pl-cz--ii-87--006_nowicki-ludwik--maryjo-bogarodzico.krn
!!!cenid: 18xx:1204
!!!COM: Nowicki, Ludwik
!!!COM-rismID: pe30020312
!!!CDT: ~1830-1886
!!!CNT: Polish
!!!OTL: Maryjo Bogarodzico
!!!PDT: 1888
!!!AGN: Sacred
!!!SMS-siglum: PL-CZ
!!!SMS-shelfmark: II-87
!!!SMS-shelfwork: 006 W
!!!SMS-variant:
!!!SMS-altvar:
!!!NIFC-rismSourceID: 300033223
!!!NIFC-rismChildID: 300033229
!!!NIFC-islandoraID: pl-cz:33881
!!!URL-pdf-islandora: https://repozytorium.nifc.pl/islandora/object/pl-cz%3A33881/datastream/PDF/view
!!!URL-scan:
!!!ONB-nifc:
!!!OMD: Andante Religioso
!!!AIN: 1 organ 1 vox
!!!key: A-
**kern	**kern	**text	**dynam	**kern	**text	**text	**text	**dynam
*part2	*part2	*part2	*part2	*part1	*part1	*part1	*part1	*part1
*staff3	*staff2	*staff2	*	*staff1	*staff1	*staff1	*staff1	*
*I"Organo	*I"Organo	*	*	*I"Voce	*	*	*	*
*Iorgan	*Iorgan	*	*	*Ivox	*	*	*	*
*ICklav	*ICklav	*	*	*ICvox	*	*	*	*
*clefF4	*clefG2	*	*	*clefG2	*	*	*	*
*k[b-e-a-d-]	*k[b-e-a-d-]	*	*	*k[b-e-a-d-]	*	*	*	*
*A-:	*A-:	*	*	*A-:	*	*	*	*
*M6/8	*M6/8	*	*	*M6/8	*	*	*	*
*>[A,B,B,B]	*>[A,B,B,B]	*	*	*>[A,B,B,B]	*	*	*	*
=1	=1	=1	=1	=1	=1	=1	=1	=1
*>A	*>A	*	*	*>A	*	*	*	*
!	!LO:TX:b:i:t=dulce	!	!LO:DY:b:rj	!	!	!	!	!
(>8e-\L	(<8cc/L	.	p	2.r	.	.	.	.
8c\	8a-/	.	.	.	.	.	.	.
8A-\J)	8f/J)	.	.	.	.	.	.	.
(>8F\L	(<8d-/L	.	.	.	.	.	.	.
8E-\	8c/	.	.	.	.	.	.	.
8C\J)	8A-/J)	.	.	.	.	.	.	.
=2	=2	=2	=2	=2	=2	=2	=2	=2
8E-/L	[<4.c/ [>4.e-	.	.	2.r	.	.	.	.
8EE-/	.	.	.	.	.	.	.	.
8E-/J	.	.	.	.	.	.	.	.
!	!LO:N:vis=4.	!	!	!	!	!	!	!
8EE-/L	4c/] 4e-]	.	.	.	.	.	.	.
8E-/	.	.	.	.	.	.	.	.
8EE-/J	8B-/ 8d-	.	.	.	.	.	.	.
=3	=3	=3	=3	=3	=3	=3	=3	=3
*^	*	*	*	*	*	*	*	*
8AA-/L	4.AA-\	4.A-/ 4.c	.	.	2.r	.	.	.	.
8E-/	.	.	.	.	.	.	.	.	.
8A-/J	.	.	.	.	.	.	.	.	.
8AA-/L	4.AA-\	8A-/ 8c	.	.	.	.	.	.	.
8E-/	.	8r	.	.	.	.	.	.	.
8A-/J	.	8r	.	.	.	.	.	.	.
=4!|:	=4!|:	=4!|:	=4!|:	=4!|:	=4!|:	=4!|:	=4!|:	=4!|:	=4!|:
*>B	*>B	*>B	*	*	*>B	*	*	*	*
!	!	!	!	!LO:DY:b:t=p.:rj	!	!	!	!	!
8AA-/L	4.AA-\	8e-/L 8cc	4 W_li-	p	8cc\	1 Ma-	2 Nie-	3, O-	.
8E-/	.	8dn/ 8bn	-to-	.	8bn\	-ry-	-bio-	-to	.
!LO:SIC:v:s=8A-/J	!	!	!	!	!	!	!	!	!
8G/J	.	8d-X/J 8b-X	-sci	.	8b-X\	-o	-sów	ka-	.
8AA-/L	4.AA-\	8d-/L 8a-	Two-	.	8a-/	Bo-	wy-	-le-	.
8E-/	.	8e-/ 8g	-jej	.	8g/	-ga-	-so-	-cy	.
!LO:SIC:v:s=8A-/J	!	!	!	!	!	!	!	!	!
8G/J	.	8d-/J 8f	Mat-	.	8f/	-ro-	-kich	i	.
=5	=5	=5	=5	=5	=5	=5	=5	=5	=5
8AA-/L	4.AA-\	4.c/ 4.e-	-czy-	.	4.e-/	-dzi-	Pa-	cho-	.
8E-/	.	.	.	.	.	.	.	.	.
!LO:SIC:v:s=8A-/J	!	!	!	!	!	!	!	!	!
8G/J	.	.	.	.	.	.	.	.	.
8AA-/L	4.AA-\	4.c/ 4.e- 4.a-	-nej	.	4a-/	-co	-ni!	-rzy,	.
8E-/	.	.	.	.	.	.	.	.	.
!LO:SIC:v:s=8A-/J	!	!	!	!	!	!	!	!	!
8G/J	.	.	.	.	8r	.	.	.	.
*v	*v	*	*	*	*	*	*	*	*
!!LO:LB:g=original
=6	=6	=6	=6	=6	=6	=6	=6	=6
8D-/L	8d-/L 8f	Gło-	.	8f/	Mat-	Spuj-	Żeb-	.
8C/	8e-/ 8f	-dnych	.	8f/	-ko	-rzyj	-ra-	.
!	!	!	!	!	!	!	!	!LO:HP:a
8BB-/J	8d-/J 8f	na-	.	8f/	cier-	na	-ją	<
8AAn/L	4.e-/ 4.f	-karmiasz z ro-	.	8ff\	-pią-	ro-	li-	[
!	!	!	!	!	!	!	!	!LO:HP:a
8FF/	.	.	.	8ee-\	-cych	-dzaj	-to-	>
8F/J	.	.	.	8cc\	nę-	czło-	-sci	]
=7	=7	=7	=7	=7	=7	=7	=7	=7
8FF/L	4.e-/ 4.f	-sko-	.	4.ee-\	-dza-	-wie-	two-	.
8C/	.	.	.	.	.	.	.	.
8F/J	.	.	.	.	.	.	.	.
8BB-/L	4.d-/ 4.f	-szą	.	4dd-\	-rży,	-czy	-jej	.
8D-/	.	.	.	.	.	.	.	.
8F/J	.	.	.	8r	.	.	.	.
=8	=8	=8	=8	=8	=8	=8	=8	=8
(>8G\L	(>(>(<8en/L 8b- 8dd-	O-	.	8dd-\	Co	O-	A	.
8A-\)	8f/))) 8a- 8cc	-to	.	8cc\	nad	-to	ktuż	.
8En\J	8c/J 8g 8b-	u	.	8b-\	Ja-	na	im	.
8F\L	8c/L 8f 8a-	bo-	.	8a-/	-gieł-	ser-	ra-	.
!	!LO:ACC:color=grey	!	!	!	!	!	!	!
(>8C\	8B-/ 8en 8g	-gie	.	8g/	-łów	-cu	-ny	.
8D-\J)	8A-/J 8f	ro-	.	8f/	sto-	znę-	za-	.
=9	=9	=9	=9	=9	=9	=9	=9	=9
(<8C/L	4.G/ 4.en	-dzy-	.	4.en/	-li-	-ka-	-go-	.
8BBn/	.	.	.	.	.	.	.	.
8BB-X/J	.	.	.	.	.	.	.	.
8AA-/L	4.c/ 4.f	-ny	.	4f/	-cą,	-ni,	-i?	.
8GG/	.	.	.	.	.	.	.	.
8FF/J)	.	.	.	8r	.	.	.	.
!!LO:LB:g=original
=10	=10	=10	=10	=10	=10	=10	=10	=10
8EE-/L	8c/L 8e-X	o	.	8e-X/	W_bra-	A	A	.
8E-/	8c/ 8a-	chleb	.	8a-/	-mie	któż	ktoż	.
8G/J	8d-/J 8e- 8b-	po-	.	8b-\	sta-	ich	im	.
8G-X\L	8c/L 8e- 8a- 8cc	-wsze-	.	8cc\	-ne-	bo-	si-	.
8F\	8d-/ 8a- 8dd-	-dni	.	8a-/	-łas	-leść	-ły	.
!LO:ACC:color=grey	!	!	!	!	!	!	!	!
8En\J	8dn/J 8a- 8ddn	cię	.	8a-/	na	u-	przy-	.
=11	=11	=11	=11	=11	=11	=11	=11	=11
*	*^	*	*	*	*	*	*	*
8E-/L	4ee-/	8e-\L 8a- 8cc	pro-	.	(4cc\	stra-	-le-	-mno-	.
8EE-/	.	8e-\J 8a- 8cc	.	.	.	.	.	.	.
8E-/J	8d-X/ 8dd-X	8ryy	.	.	8b-\)	.	.	.	.
8AA-/L	(>[<4c/ 4a- 4cc	4.ryy	-szą,	.	4a-/	-ży	-czy	-ży	.
8E-/	.	.	.	.	.	.	.	.	.
8A-/J	8c/]) 8a-	.	.	.	8r	.	.	.	.
*	*v	*v	*	*	*	*	*	*	*
=12	=12	=12	=12	=12	=12	=12	=12	=12
!	!	!	!LO:DY:b:rj	!	!	!	!	!
8D-\L	4.d-/ 4.f-X 4.a-	O_stwurż_im	f	8a-/	Spój-	Tyś	W_Twej	.
8F-X\	.	.	.	8a-/	-żyj	mia-	łas-	.
8A-\J	.	.	.	8a-/	na	-ła	-ce	.
8F-\L	4.d-/ 4.f- 4.a-	wsparcia skar-	.	8a-/	tłu-	ser-	cu-	.
8A-\	.	.	.	8dd-/	-my	-ce	-dem	.
8F-\J	.	.	.	8ff-X\	skru-	zra-	na-	.
!!LO:LB:g=original
=13	=13	=13	=13	=13	=13	=13	=13	=13
8A-\L	8c/L 8e- 8a-	-bo-	.	4.ee-\	-sza-	-nio-	-tchio-	.
8c\	8e-/ 8a- 8ee-	.	.	.	.	.	.	.
8A-\J	8e-/J 8cc	.	.	.	.	.	.	.
8E-\L	8c/L 8a-	-nę,	.	4cc\	-ne	-ne,	-ne,	.
8C\	8e-/	.	.	.	.	.	.	.
8E-\J	8c/J 8a-	.	.	8r	.	.	.	.
=14	=14	=14	=14	=14	=14	=14	=14	=14
8D-\L	4.d-/ 4.f-X 4.a-X	błogosław	.	8a-/	Co	I	U-	.
8F-X\	.	.	.	8a-/	kl-	twuj	-zdra-	.
8A-\J	.	.	.	8a-/	-czą	zał	-wia-	.
8F-\L	4.d-/ 4.f- 4.a-	pracy ich	.	8a-/	u	nie	-ją-	.
8A-\	.	.	.	8dd-\	stop	miał	-ce,	.
8F-\J	.	.	.	8ff-X\	tej	swej	bal-	.
=15	=15	=15	=15	=15	=15	=15	=15	=15
8A-\L	8c/L 8e- 8a-	sa-	.	4.ee-\	bra-	.	-zu-	.
8c\	8e-/ 8a- 8ee-	.	.	.	.	.	.	.
8A-\J	8e-/J 8cc	.	.	.	.	.	.	.
8E-\L	8c/L 8a-	-mej	.	4cc\	-my	.	-my	.
8C\	8e-/	.	.	.	.	.	.	.
8E-\J	8c/J 8a-	.	.	8r	.	.	.	.
=16	=16	=16	=16	=16	=16	=16	=16	=16
!	!	!	!	!LO:TX:a:i:t=dolce	!	!	!	!
4e-\	4a-\ 4cc	Mat-ko	.	8cc\	Mat-	Mat	Mat	.
.	.	.	.	8a-/	-ko!	i	i	.
8e-\	8a-\ 8cc	i.	.	8ee-\	pod	t	t	.
4dn\	4f/ 4bn	t. d	.	8ddn\	Two-	d.	d	.
.	.	.	.	8dd\	-ją	.	.	.
8d-X\	8f-X/ 8b-X	.	.	8dd-X\	o-	.	.	.
!!LO:PB:g=original
=17	=17	=17	=17	=17	=17	=17	=17	=17
4c\	4e-/ 4a-	.	.	(4cc\	-bro-	.	.	.
8G\	8d-/ 8e- 8b-	.	.	8b-\)	.	.	.	.
8A-\L	4.c/ 4.e- 4.cc	.	.	4a-/	-ną	.	.	.
8E-\	.	.	.	.	.	.	.	.
8C\J	.	.	.	8r	.	.	.	.
=18	=18	=18	=18	=18	=18	=18	=18	=18
4.D-\	8d-/L 8b-	.	.	8b-\	Z_po-	.	.	.
.	8e-/ 8cc	.	.	8cc\	-ko-	.	.	.
.	8f/J 8dd-	.	.	8dd-\	-rą	.	.	.
4E-\	8e-/L 8cc	.	.	8cc\	się	.	.	.
.	8c/ 8a- 8cc	.	.	8a-/	u-	.	.	.
8EE-/	8d-/J 8b- 8dd-	.	.	8b-/	-cie-	.	.	.
=19	=19	=19	=19	=19	=19	=19	=19	=19
8E-/L	4e-/ 4cc 4ee-	.	.	(4cc\	-ka-	.	.	.
8EE-/	.	.	.	.	.	.	.	.
8E-/J	8d-/ 8b- 8dd-	.	.	8b-\)	.	.	.	.
8AA-/L	4.c/ 4.a- 4.cc	.	.	4a-/	-my	.	.	.
8E-/	.	.	.	.	.	.	.	.
8A-/J	.	.	.	8r	.	.	.	.
=20	=20	=20	=20	=20	=20	=20	=20	=20
!	!	!	!	!	!	!	!	!LO:DY:a
4.f\	4.a-\ 4.dd-	.	.	8dd-\	Mat-	.	.	<
.	.	.	.	8a-/	-ko	.	.	[
.	.	.	.	8ff\	pod	.	.	.
4.f-X\	4.a-\ 4.dd-	.	.	8ff-X\	Two-	.	.	.
.	.	.	.	8dd-\	-ją	.	.	.
.	.	.	.	8a-/	o-	.	.	.
!!LO:LB:g=original
=21	=21	=21	=21	=21	=21	=21	=21	=21
4e-\	4a-\ 4cc	.	.	(4cc\	-bro-	.	.	.
8d-\	8f/ 8b-	.	.	8b-\)	.	.	.	.
8c\L	4.e-/ 4.a-	.	.	4a-/	-nę	.	.	.
8A-\	.	.	.	.	.	.	.	.
8C\J	.	.	.	8r	.	.	.	.
=22	=22	=22	=22	=22	=22	=22	=22	=22
4.D-\	8d-/L 8b-	.	.	8b-\	Z_po-	.	.	.
.	8e-/ 8cc	.	.	8cc\	-ko-	.	.	.
.	8f/J 8dd-	.	.	8dd-\	-rą	.	.	.
!	!	!	!	!	!	!	!	!LO:DY:a
4.E-\	8e-/L 8cc	.	p	8cc\	sie	.	.	p
.	8c/ 8a-	.	.	8a-/	u-	.	.	.
.	8d-/J 8b-	.	.	8f/	-cie-	.	.	.
=23	=23	=23	=23	=23	=23	=23	=23	=23
4E-\	4e-/ 4cc	.	>	(4e-/	-ka-	.	.	.
8EE-/	8d-/ 8b-	.	]	8g/)	.	.	.	.
!	!LO:N:vis=4	!	!	!	!	!	!	!
8AA-/L	4.c/ 4.cc	.	.	4.a-/	-my.	.	.	.
8E-/	.	.	.	.	.	.	.	.
8A-/J	.	.	.	.	.	.	.	.
=24	=24	=24	=24	=24	=24	=24	=24	=24
*^	*	*	*	*	*	*	*	*
8D-\L	4.D-/	4.d-/ 4.f	.	.	2.r	.	.	.	.
8F\	.	.	.	.	.	.	.	.	.
8A-\J	.	.	.	.	.	.	.	.	.
!	!	!LO:N:vis=4	!	!	!	!	!	!	!
8AA-\L	4.AA-/	4.c/ 4.e-	.	.	.	.	.	.	.
8E-\	.	.	.	.	.	.	.	.	.
!LO:TX:a:t=as:color=grey	!	!	!	!	!	!	!	!	!
!LO:TX:t=P:korekta:problem	!	!	!	!	!	!	!	!	!
8A-\J	.	.	.	.	.	.	.	.	.
*v	*v	*	*	*	*	*	*	*	*
=25	=25	=25	=25	=25	=25	=25	=25	=25
*^	*	*	*	*	*	*	*	*
*rep	*rep	*rep	*	*	*	*	*	*	*
8D-\L	4.D-/	4.d-/ 4.f	.	.	2.r	.	.	.	.
8F\	.	.	.	.	.	.	.	.	.
8A-\J	.	.	.	.	.	.	.	.	.
!	!	!LO:N:vis=4	!	!	!	!	!	!	!
8AA-\L	4.AA-/	4.c/ 4.e-	.	.	.	.	.	.	.
8E-\	.	.	.	.	.	.	.	.	.
8A-\J	.	.	.	.	.	.	.	.	.
*Xrep	*Xrep	*Xrep	*	*	*	*	*	*	*
*v	*v	*	*	*	*	*	*	*	*
!!LO:LB:g=original
=26	=26	=26	=26	=26	=26	=26	=26	=26
8D-/L	(<8d-/L 8f	.	.	2.r	.	.	.	.
8BB-/	8e-/ 8g	.	<	.	.	.	.	.
8C/J	8e-/J) 8a-	.	.	.	.	.	.	.
8GG/L	8e-/L 8b-	.	.	.	.	.	.	.
8AA-/	8e-/ 8cc	.	[	.	.	.	.	.
8FF/J	8a-/J 8ddn	.	.	.	.	.	.	.
=27	=27	=27	=27	=27	=27	=27	=27	=27
4EE-/	8cc/L 8ee-	.	.	2.r	.	.	.	.
.	(<8e-/	.	.	.	.	.	.	.
8E-\	8d-X/J) 8g	.	.	.	.	.	.	.
!	!LO:TX:b:i:t=dolce	!	!	!	!	!	!	!
8AA-/	8c/ 8a-	.	.	.	.	.	.	.
(>8e-\L	(>8cc\L	.	.	.	.	.	.	.
8dn\J)	8bn\J)	.	.	.	.	.	.	.
=28	=28	=28	=28	=28	=28	=28	=28	=28
(>8e-\L	(<8cc/L	.	.	2.r	.	.	.	.
8c\	8a-/	.	.	.	.	.	.	.
8A-\J)	8f/J)	.	.	.	.	.	.	.
(>8F\L	(<8d-/L	.	.	.	.	.	.	.
8E-\	8c/	.	.	.	.	.	.	.
!	!LO:TX:a:t=Finis.	!	!	!	!	!	!	!
8C\J)	8A-/J)	.	.	.	.	.	.	.
!!LO:LB:g=original
==	==	==	==	==	==	==	==	==
*-	*-	*-	*-	*-	*-	*-	*-	*-
!!!system-decoration: [(s1,s2,s3)]
!!!RDF**kern: < = below
!!!RDF**kern: > = above
!!!ENC: Andrzej Borzym
!!!END: 2020-11-08
!!!ENC: Marta Chmielewska
!!!END: 2021-11-16
!!!YEC: Copyright 2022 Narodowy Instytut Fryderyka Chopina (https://polishscores.org)
!!!YEM: License CC-BY-4.0 (https://creativecommons.org/licenses/by/4.0)
